X: 1
T: Chuir Iad Mise Dh'Eilean Leam Fhin
M: 3/4
L: 1/8
R: waltz
K: Dmin
A2 C4 | F2 A4 | A2 D2 F2 | A6 | 
G2 C4 | E2 G4 | G2 C2 E2 | G6 |
F2 D4 | F2 A4 | A2 D2 F2 | A6 |
A2 d4 | c2 A4 | G2 C2 E2 | G6 ||
